Obsidian/actions/24s/query-free-busy.svg

<svg height="24" viewBox="0 0 24 24" width="24" xmlns="http://www.w3.org/2000/svg"><path d="m12 4c-2.2091-.0000055-4 1.7909-4 4 .0000166 2.2091 1.7909 4 4 4 2.2091.000006 4-1.7909 4-4s-1.791-4-4-4zm0 8.986328c-4.028.0048-7.4965 3.017672-8 7.013672h9.712891c-1.0343-.827-1.712891-2.082-1.712891-3.5 0-1.403.665341-2.659228 1.681641-3.486328-.7385-.0145-1.494341-.025944-1.681641-.027344zm4.5.013672a3.5 3.5 0 0 0 -3.5 3.5 3.5 3.5 0 0 0 3.5 3.5 3.5 3.5 0 0 0 3.5-3.5 3.5 3.5 0 0 0 -3.5-3.5zm-.5 1h1v1h-1zm0 2h1v3h-1z" fill="#bebebe"/></svg>

<svg xmlns="http://www.w3.org/2000/svg" width="24" height="24" version="1.1" viewBox="0 0 24 24">
 <defs>
  <style id="current-color-scheme" type="text/css">
   .ColorScheme-Text { color:#bebebe; } .ColorScheme-Highlight { color:#4285f4; }
  </style>
 </defs>
 <path style="fill:currentColor" class="ColorScheme-Text" d="m 12,4 c -2.2091,-5.5e-6 -4,1.7909 -4,4 1.66e-5,2.2091 1.7909,4 4,4 2.2091,6e-6 4,-1.7909 4,-4 0,-2.2091 -1.791,-4 -4,-4 z m 0,8.986328 C 7.972,12.991128 4.5035,16.004 4,20 h 9.712891 C 12.678591,19.173 12,17.918 12,16.5 12,15.097 12.665341,13.840772 13.681641,13.013672 12.943141,12.999172 12.1873,12.987728 12,12.986328 Z M 16.5,13 A 3.5,3.5 0 0 0 13,16.5 3.5,3.5 0 0 0 16.5,20 3.5,3.5 0 0 0 20,16.5 3.5,3.5 0 0 0 16.5,13 Z M 16,14 h 1 v 1 h -1 z m 0,2 h 1 v 3 h -1 z"/>
</svg>
